build/category/ProductsOutline.svg

<svg xmlns="http://www.w3.org/2000/svg" fill="none" viewBox="0 0 24 24" focusable="false"><path d="M0 0H24V24H0z"/><path fill="none" d="M9.7002 4L5.2998 4C4.58203 4 4 4.58203 4 5.30005L4 7.69995C4 8.41797 4.58203 9 5.2998 9L9.7002 9C10.418 9 11 8.41797 11 7.69995L11 5.30005C11 4.58203 10.418 4 9.7002 4ZM13.5996 4L18 4C18.7178 4 19.2998 4.58203 19.2998 5.30005L19.2998 10.3999C19.2998 11.1179 18.7178 11.7 18 11.7L13.5996 11.7C12.8818 11.7 12.2998 11.1179 12.2998 10.3999L12.2998 5.30005C12.2998 4.58203 12.8818 4 13.5996 4ZM9.7002 10.3L5.2998 10.3C4.58203 10.3 4 10.8821 4 11.6001L4 18C4 18.718 4.58203 19.3 5.2998 19.3L9.7002 19.3C10.418 19.3 11 18.718 11 18L11 11.6001C11 10.8821 10.418 10.3 9.7002 10.3ZM18 13L13.5996 13C12.8818 13 12.2998 13.582 12.2998 14.3L12.2998 18C12.2998 18.718 12.8818 19.3 13.5996 19.3L18 19.3C18.7178 19.3 19.2998 18.718 19.2998 18L19.2998 14.3C19.2998 13.582 18.7178 13 18 13Z"/><path fill="#74767B" fill-rule="evenodd" d="M10.9999 5.28137C10.9899 4.57197 10.4117 4 9.7002 4L5.2998 4C4.58203 4 4 4.58203 4 5.30005L4 7.69995C4 8.41797 4.58203 9 5.2998 9L9.7002 9C10.4104 9 10.9877 8.43024 10.9998 7.72273C10.9999 7.71515 11 7.70756 11 7.69995L11 5.30005L10.9999 5.28137ZM11 14.2675L11 11.6001C11 10.8821 10.418 10.3 9.7002 10.3L5.2998 10.3C4.58203 10.3 4 10.8821 4 11.6001L4 18C4 18.718 4.58203 19.3 5.2998 19.3L9.7002 19.3C10.4117 19.3 10.9899 18.7281 10.9999 18.0187C11 18.0125 11 18.0062 11 18L11 14.2675ZM12.2998 7.73253L12.2998 10.3999C12.2998 11.1179 12.8818 11.7 13.5996 11.7L18 11.7C18.7178 11.7 19.2998 11.1179 19.2998 10.3999L19.2998 5.30005C19.2998 4.58203 18.7178 4 18 4L13.5996 4C12.8881 4 12.3099 4.57197 12.2999 5.28137C12.2998 5.28759 12.2998 5.29381 12.2998 5.30005L12.2998 7.73253ZM12.3 14.2773C12.2999 14.2848 12.2998 14.2924 12.2998 14.3L12.2998 18L12.2999 18.0187C12.3099 18.7281 12.8881 19.3 13.5996 19.3L18 19.3C18.7178 19.3 19.2998 18.718 19.2998 18L19.2998 14.3C19.2998 13.582 18.7178 13 18 13L13.5996 13C12.8894 13 12.3122 13.5698 12.3 14.2773ZM5.2998 5.3L9.7002 5.3L9.7 5.30005L9.7 7.69995L9.7002 7.7L5.2998 7.7L5.3 7.69995L5.3 5.30005L5.2998 5.3ZM13.5996 5.3L18 5.3L17.9998 5.30005L17.9998 10.3999L18 10.4L13.5996 10.4L13.5998 10.3999L13.5998 5.30005L13.5996 5.3ZM5.2998 11.6L9.7002 11.6L9.7 11.6001L9.7 18L9.7002 18L5.2998 18L5.3 18L5.3 11.6001L5.2998 11.6ZM13.5996 14.3L18 14.3L17.9998 14.3L17.9998 18L18 18L13.5996 18L13.5998 18L13.5998 14.3L13.5996 14.3Z"/></svg>

<svg xmlns="http://www.w3.org/2000/svg" fill="none" viewBox="0 0 24 24" focusable="false"><path fill="none" d="M9.7 4H5.29C4.58 4 4 4.58 4 5.3v2.39C4 8.41 4.58 9 5.29 9H9.7c.71 0 1.3-.59 1.3-1.31V5.3c0-.72-.59-1.3-1.3-1.3m3.89 0H18c.71 0 1.29.58 1.29 1.3v5.09c0 .72-.58 1.31-1.29 1.31h-4.41c-.71 0-1.3-.59-1.3-1.31V5.3c0-.72.59-1.3 1.3-1.3M9.7 10.3H5.29c-.71 0-1.29.58-1.29 1.3V18c0 .71.58 1.29 1.29 1.29H9.7c.71 0 1.3-.58 1.3-1.29v-6.4c0-.72-.59-1.3-1.3-1.3M18 13h-4.41c-.71 0-1.3.58-1.3 1.3V18c0 .71.59 1.29 1.3 1.29H18c.71 0 1.29-.58 1.29-1.29v-3.7c0-.72-.58-1.3-1.29-1.3"/><path fill="#74767B" fill-rule="evenodd" d="M10.99 5.28c0-.71-.58-1.28-1.29-1.28H5.29C4.58 4 4 4.58 4 5.3v2.39C4 8.41 4.58 9 5.29 9H9.7c.71 0 1.28-.57 1.29-1.28.01-.01.01-.02.01-.03V5.3zm.01 8.98V11.6c0-.72-.59-1.3-1.3-1.3H5.29c-.71 0-1.29.58-1.29 1.3V18c0 .71.58 1.29 1.29 1.29H9.7c.71 0 1.29-.57 1.29-1.28.01 0 .01-.01.01-.01zm1.29-6.53v2.66c0 .72.59 1.31 1.3 1.31H18c.71 0 1.29-.59 1.29-1.31V5.3c0-.72-.58-1.3-1.29-1.3h-4.41c-.71 0-1.29.57-1.29 1.28-.01 0-.01.01-.01.02zm.01 6.54c-.01.01-.01.02-.01.03V18l.01.01c0 .71.58 1.28 1.29 1.28H18c.71 0 1.29-.58 1.29-1.29v-3.7c0-.72-.58-1.3-1.29-1.3h-4.41c-.71 0-1.28.56-1.29 1.27M5.29 5.29H9.7l-.01.01v2.39l.01.01H5.29l.01-.01V5.3zm8.3 0H18l-.01.01v5.09l.01.01h-4.41V5.29m-8.3 6.31H9.7h-.01V18h.01-4.41.01v-6.4zm8.3 2.7H18h-.01V18H18h-4.41z"/></svg>
